assets/svgs/pspminis.svg

<?xml version="1.0" encoding="UTF-8" standalone="no"?>
<svg
   xmlns:dc="http://purl.org/dc/elements/1.1/"
   xmlns:cc="http://creativecommons.org/ns#"
   xmlns:rdf="http://www.w3.org/1999/02/22-rdf-syntax-ns#"
   xmlns:svg="http://www.w3.org/2000/svg"
   xmlns="http://www.w3.org/2000/svg"
   xmlns:sodipodi="http://sodipodi.sourceforge.net/DTD/sodipodi-0.dtd"
   xmlns:inkscape="http://www.inkscape.org/namespaces/inkscape"
   version="1.2"
   id="svg23"
   sodipodi:docname="pspminis.svg"
   width="264.00027"
   height="104.00006"
   inkscape:version="0.92.5 (2060ec1f9f, 2020-04-08)">
  <metadata
     id="metadata29">
    <rdf:RDF>
      <cc:Work
         rdf:about="">
        <dc:format>image/svg+xml</dc:format>
        <dc:type
           rdf:resource="http://purl.org/dc/dcmitype/StillImage" />
      </cc:Work>
    </rdf:RDF>
  </metadata>
  <defs
     id="defs27" />
  <sodipodi:namedview
     pagecolor="#ffffff"
     bordercolor="#666666"
     borderopacity="1"
     objecttolerance="10"
     gridtolerance="10"
     guidetolerance="10"
     inkscape:pageopacity="0"
     inkscape:pageshadow="2"
     inkscape:window-width="640"
     inkscape:window-height="480"
     id="namedview25"
     showgrid="false"
     inkscape:zoom="2.36"
     inkscape:cx="50"
     inkscape:cy="53.999064"
     inkscape:window-x="72"
     inkscape:window-y="27"
     inkscape:window-maximized="0"
     inkscape:current-layer="svg23" />
  <g
     transform="matrix(0.439517,0,0,0.441672,0,4.41672e-4)"
     id="g5">
    <path
       id="path6945"
       d="M 0,0.002 H 186.936 V 55.436 H 7.386 v 48.048 H 0 V 48.047 H 179.55 V 7.385 H 0 V 0.002"
       style="fill:#ffffff;fill-opacity:1"
       inkscape:connector-curvature="0" />
    <path
       id="path6947"
       d="m 420.453,55.436 v 48.048 h -7.386 V 48.047 H 592.614 V 7.385 H 413.067 V -0.001 H 600 V 55.436 H 420.453"
       style="fill:#ffffff;fill-opacity:1"
       inkscape:connector-curvature="0" />
    <path
       id="path6949"
       d="m 282.252,0.002 v 96.093 h -95.316 v 7.389 H 290.049 V 7.385 h 95.316 V -0.001 H 282.252"
       style="fill:#ffffff;fill-opacity:1"
       inkscape:connector-curvature="0" />
  </g>
  <g
     transform="matrix(0.439517,0,0,0.441672,0,4.41672e-4)"
     id="g21">
    <path
       d="m 567.16,120.068 c -21.5,3 -34.7,14.1 -40.1,34 -0.9,3.4 -1.9,13 -2.4,22.8 -0.9,20.4 -2.5,26 -9.4,32.3 -8.1,7.5 -13.7,9.2 -32.5,10.1 l -13.3,0.6 v 7.5 7.5 l 15.4,-0.2 c 23.8,-0.2 35.9,-3.6 45.6,-12.7 10.3,-9.7 14.1,-21 15.1,-46.1 0.7,-14.3 1.1,-17.8 3,-22 5.9,-13.4 19.7,-19.5 44.2,-19.5 h 7.9 v -7.5 -7.5 l -15.2,0.1 c -8.4,0.1 -16.6,0.4 -18.3,0.6 z"
       style="fill:#ffffff"
       id="path7"
       inkscape:connector-curvature="0" />
    <path
       d="m 39.16,145.268 c -9.2,2.7 -14.4,5.8 -21.1,12.6 -11.9,12.1 -14.3,21.5 -14.4,55.2 v 22.3 h 9.9 9.9 l 0.4,-25.8 c 0.4,-23.3 0.7,-26.2 2.7,-31.3 3,-7.9 7.8,-13 15.3,-16.5 5.9,-2.7 7.2,-2.9 18.3,-2.9 10.8,0 12.5,0.3 17.5,2.6 7,3.3 11.6,7.9 14.9,14.9 2.5,5.4 2.6,6.1 3.1,32 l 0.5,26.5 10.2,0.3 10.2,0.3 0.3,-26.8 c 0.3,-26.5 0.3,-26.9 2.9,-32.3 3.4,-7 8,-11.6 14.9,-14.9 5,-2.3 6.7,-2.6 17.5,-2.6 11.6,0 12.3,0.1 18.7,3.3 7.8,3.8 11.9,8.3 15,16.2 1.9,5 2.2,8 2.6,31.2 l 0.4,25.8 h 9.9 9.9 v -22.3 c -0.1,-33.7 -2.5,-43.1 -14.4,-55.2 -10.8,-11 -20.8,-14.5 -41.8,-14.5 -20.3,0 -31.3,3.6 -41.1,13.6 l -5.1,5.2 -5.2,-5.2 c -5.8,-5.8 -13.1,-9.8 -21.9,-12.1 -8.5,-2.2 -32,-2 -40,0.4 z"
       style="fill:#ffffff"
       id="path9"
       inkscape:connector-curvature="0" />
    <path
       d="m 235.66,150.868 v 7.5 h 10 10 v -7.5 -7.5 h -10 -10 z"
       style="fill:#ffffff"
       id="path11"
       inkscape:connector-curvature="0" />
    <path
       d="m 319.96,144.868 c -8.3,2.3 -14.2,5.5 -20.3,11.2 -13.6,12.5 -16,20.6 -16.3,54.8 l -0.2,24 10.2,0.3 10.1,0.3 0.4,-26.8 c 0.4,-30.3 0.7,-31.9 8.7,-40.6 5.9,-6.4 12.3,-8.9 24.2,-9.5 21.7,-1.1 34.8,8.2 37.8,26.8 0.6,3.6 1.1,16.3 1.1,28.2 v 21.8 h 10.1 10.1 l -0.4,-26.3 c -0.4,-23.1 -0.7,-26.9 -2.5,-32.4 -5.3,-16.1 -17.5,-27.5 -34,-31.7 -7.8,-2 -31.5,-2.1 -39,-0.1 z"
       style="fill:#ffffff"
       id="path13"
       inkscape:connector-curvature="0" />
    <path
       d="m 422.66,150.868 v 7.5 h 10.5 10.5 v -7.5 -7.5 h -10.5 -10.5 z"
       style="fill:#ffffff"
       id="path15"
       inkscape:connector-curvature="0" />
    <path
       d="m 235.66,204.868 v 30.5 h 10 10 v -30.5 -30.5 h -10 -10 z"
       style="fill:#ffffff"
       id="path17"
       inkscape:connector-curvature="0" />
    <path
       d="m 422.66,204.868 v 30.5 h 10.5 10.5 l -0.2,-30.3 -0.3,-30.2 -10.2,-0.3 -10.3,-0.3 z"
       style="fill:#ffffff"
       id="path19"
       inkscape:connector-curvature="0" />
  </g>
</svg>

<?xml version="1.0" encoding="utf-8"?>
<svg version="1.2" viewBox="0 0 264 104" xmlns="http://www.w3.org/2000/svg">
  <g transform="matrix(0.439517, 0, 0, 0.441672, 0, -0.000558)">
    <path id="path6945" d="M 0 0.002 L 186.936 0.002 L 186.936 55.436 L 7.386 55.436 L 7.386 103.484 L 0 103.484 L 0 48.047 L 179.55 48.047 L 179.55 7.385 L 0 7.385 L 0 0.002" style="fill-opacity: 1; fill: rgb(255, 255, 255);"/>
    <path id="path6947" d="M 420.453 55.436 L 420.453 103.484 L 413.067 103.484 L 413.067 48.047 L 592.614 48.047 L 592.614 7.385 L 413.067 7.385 L 413.067 -0.001 L 600 -0.001 L 600 55.436 L 420.453 55.436" style="fill-opacity: 1; fill: rgb(255, 255, 255);"/>
    <path id="path6949" d="M 282.252 0.002 L 282.252 96.095 L 186.936 96.095 L 186.936 103.484 L 290.049 103.484 L 290.049 7.385 L 385.365 7.385 L 385.365 -0.001 L 282.252 -0.001" style="fill-opacity: 1; fill: rgb(255, 255, 255);"/>
  </g>
  <g transform="matrix(0.439517, 0, 0, 0.441672, 0, -0.000558)">
    <path d="M 567.16 120.068 C 545.66 123.068 532.46 134.168 527.06 154.068 C 526.16 157.468 525.16 167.068 524.66 176.868 C 523.76 197.268 522.16 202.868 515.26 209.168 C 507.16 216.668 501.56 218.368 482.76 219.268 L 469.46 219.868 L 469.46 227.368 L 469.46 234.868 L 484.86 234.668 C 508.66 234.468 520.76 231.068 530.46 221.968 C 540.76 212.268 544.56 200.968 545.56 175.868 C 546.26 161.568 546.66 158.068 548.56 153.868 C 554.46 140.468 568.26 134.368 592.76 134.368 L 600.66 134.368 L 600.66 126.868 L 600.66 119.368 L 585.46 119.468 C 577.06 119.568 568.86 119.868 567.16 120.068 Z" style="fill: rgb(255, 255, 255);"/>
    <path d="M 39.16 145.268 C 29.96 147.968 24.76 151.068 18.06 157.868 C 6.16 169.968 3.76 179.368 3.66 213.068 L 3.66 235.368 L 13.56 235.368 L 23.46 235.368 L 23.86 209.568 C 24.26 186.268 24.56 183.368 26.56 178.268 C 29.56 170.368 34.36 165.268 41.86 161.768 C 47.76 159.068 49.06 158.868 60.16 158.868 C 70.96 158.868 72.66 159.168 77.66 161.468 C 84.66 164.768 89.26 169.368 92.56 176.368 C 95.06 181.768 95.16 182.468 95.66 208.368 L 96.16 234.868 L 106.36 235.168 L 116.56 235.468 L 116.86 208.668 C 117.16 182.168 117.16 181.768 119.76 176.368 C 123.16 169.368 127.76 164.768 134.66 161.468 C 139.66 159.168 141.36 158.868 152.16 158.868 C 163.76 158.868 164.46 158.968 170.86 162.168 C 178.66 165.968 182.76 170.468 185.86 178.368 C 187.76 183.368 188.06 186.368 188.46 209.568 L 188.86 235.368 L 198.76 235.368 L 208.66 235.368 L 208.66 213.068 C 208.56 179.368 206.16 169.968 194.26 157.868 C 183.46 146.868 173.46 143.368 152.46 143.368 C 132.16 143.368 121.16 146.968 111.36 156.968 L 106.26 162.168 L 101.06 156.968 C 95.26 151.168 87.96 147.168 79.16 144.868 C 70.66 142.668 47.16 142.868 39.16 145.268 Z" style="fill: rgb(255, 255, 255);"/>
    <path d="M 235.66 150.868 L 235.66 158.368 L 245.66 158.368 L 255.66 158.368 L 255.66 150.868 L 255.66 143.368 L 245.66 143.368 L 235.66 143.368 L 235.66 150.868 Z" style="fill: rgb(255, 255, 255);"/>
    <path d="M 319.96 144.868 C 311.66 147.168 305.76 150.368 299.66 156.068 C 286.06 168.568 283.66 176.668 283.36 210.868 L 283.16 234.868 L 293.36 235.168 L 303.46 235.468 L 303.86 208.668 C 304.26 178.368 304.56 176.768 312.56 168.068 C 318.46 161.668 324.86 159.168 336.76 158.568 C 358.46 157.468 371.56 166.768 374.56 185.368 C 375.16 188.968 375.66 201.668 375.66 213.568 L 375.66 235.368 L 385.76 235.368 L 395.86 235.368 L 395.46 209.068 C 395.06 185.968 394.76 182.168 392.96 176.668 C 387.66 160.568 375.46 149.168 358.96 144.968 C 351.16 142.968 327.46 142.868 319.96 144.868 Z" style="fill: rgb(255, 255, 255);"/>
    <path d="M 422.66 150.868 L 422.66 158.368 L 433.16 158.368 L 443.66 158.368 L 443.66 150.868 L 443.66 143.368 L 433.16 143.368 L 422.66 143.368 L 422.66 150.868 Z" style="fill: rgb(255, 255, 255);"/>
    <path d="M 235.66 204.868 L 235.66 235.368 L 245.66 235.368 L 255.66 235.368 L 255.66 204.868 L 255.66 174.368 L 245.66 174.368 L 235.66 174.368 L 235.66 204.868 Z" style="fill: rgb(255, 255, 255);"/>
    <path d="M 422.66 204.868 L 422.66 235.368 L 433.16 235.368 L 443.66 235.368 L 443.46 205.068 L 443.16 174.868 L 432.96 174.568 L 422.66 174.268 L 422.66 204.868 Z" style="fill: rgb(255, 255, 255);"/>
  </g>
</svg>
